X: 100863
T: Joe Monahan's
S: "First Collection of Traditional Irish Music" (M.Mulvihill)
Z: B.Black
L: 1/8
M: 4/4
R: reel
K: D
dB|: (3ABA FA DAFA|(3fga fd edBd|(3ABA FA BAFA|BddA BAFB|
(3ABA FA DAFA|(3fga fd edBd|fa (3aga bf (3fef|efde fd d2 :|
fa (3aga bf (3fef|defd efde|fd (3Bcd ABde|fedf efde|
fa (3aga bf (3fef|defd efde|f2 df efdB|AFEF D4 :|
